public/avatar/hat/128.svg

<svg xmlns:xlink="http://www.w3.org/1999/xlink" height="92.9" width="100.7" xmlns="http://www.w3.org/2000/svg"><use height="21.75" transform="translate(22.2 38.6)" width="31.8" xlink:href="#a"/><defs><g id="a" fill-rule="evenodd"><path d="m10.2 2.55 2.15 1q2.25 1.1 2.6 1.75.85 1.65-.2 3.35l-2.4 1.95L8.7 5.1q-.15-.25-3-1.45l4.5-1.1m-21.5 0 4.5 1.1-3.15 1.85-3.35 5q-2.15-1.25-2.55-1.85-1.05-1.7-.2-3.35.4-.65 2.6-1.75l2.15-1" fill="#0a0200" transform="translate(16.45 11.15)"/><path d="M11.5-7.8q.4.55-.15 2.2l-.85 2.3q-.35 1-.75 3.1l.55.65q.4.4.7 2.8L3 2.7 0-1.8l-.15-.75-.15.75-3 4.5-8 .55.65-2.8.5-.8-.65-2.95q-1.4-3.95-1-4.5.6-.85 3.6-2.05 3.4-1.3 6.05-1.3H1.8q2.7 0 6.05 1.3 3 1.2 3.65 2.05" fill="#0a0200" transform="translate(16.45 11.15)"/><path d="M11 7.85Q7.75 9.7 2.2 10.2q-7.55.7-13.6-2.35.9-2.55 1.75-3.25 2.4-2 9-2 6.7 0 9.2 1.75.6.45 2.45 3.5" fill="#4f5e7d" fill-opacity=".161" transform="translate(16.45 11.15)"/><path d="m10.35 5 .35 3Q8.05 6.75-.65 6.75q-5.4 0-8.5.75l-2 .7.95-3.2 9-1.55L10.35 5" fill="#8a8a8a" fill-opacity=".412" transform="translate(16.45 11.15)"/><path d="M8.5 4.7q-3.95-.95-9-.9l-8.1.8-.95 1.15q-1.8 2.3-2.6 4.1-1.6-.8-3.25-2.2l-.15-.45q3-1.8 6.95-2.6 1.1-1.25 1.55-1.1l14.75.45.8.75q3.15.75 5.6 2.15l-.2.65q-.65 1.25-2.35 2.2-.35-1.15-1.75-3.25L8.5 4.7" fill="#873c09" transform="translate(16.45 11.15)"/><path d="M-.5-10.15q7.8-.1 10.75 2.8-.55 2.25-.95 5-.75 5.45.3 7.85-8.3-3.8-19.75.05Q-8.6-.6-10.9-6.95q2.55-3.1 10.4-3.2" fill="#ffffbf" transform="translate(16.45 11.15)"/><path d="M2.2-8.95q5.5.6 6.55 2.25-1.5 8.6-1.05 9.95l-5.95-.9q-.15-2.6.45-11.3m-7.6.55 1.35 10.65L-8 2.8q.2-4.9-1.2-9.55Q-7.85-8.3-5.4-8.4" fill="#fdc259" transform="translate(16.45 11.15)"/><path d="M-1.05-1.7q6.3 0 9 1.5 1.35.7 1.4 1.45L-1.1-.65l-8.85 2 1.3-1.5Q-6.3-1.7-1.05-1.7" fill="#e03000" transform="translate(16.45 11.15)"/><path d="M9.7 5.5Q6.55 3.35-.7 3.35-7.95 3.3-10.8 5.5q.45-1.4.8-4 1.05-2.55 9.15-2.65 8.15-.1 10.3 2.45l.25 4.2" fill="#ffab94" transform="translate(16.45 11.15)"/><path d="m.95-.05.1-.7q3.3-.2 7.4 1.55v1.6L5.3 1.9 0 1.15 2.7.9.85.6 3.4.5Q2.25.05.95-.05m-9.9 1.1.15-.3Q-6.75-.85-3.65-.4L-6.05.65l2.1-.1-.2.8-2.45.45q-1.65.1-2.55.55l.2-1.3" fill="#ff752e" transform="translate(16.45 11.15)"/><path d="m-8.45-7.45 1.5-.7 1.55 9.8-1.75.4-1.3-9.5m16.4.25L6.5 2.1l-1.25-.25 1.5-9.65 1.2.6" fill="#fff" transform="translate(16.45 11.15)"/><path d="M1.6 2.15q8.3.55 12 2.95.75.75.5 2.25-5.5-3.1-14.6-3.1-9.35 0-15 3.4-.25-1.3.6-2.55 6.65-3.6 16.5-2.95" fill="#ffffed" transform="translate(16.45 11.15)"/><path d="m-14.9 5.05 3.45-1.5q4.6-1.5 10.65-1.5 9.6 0 14.5 3.05Q6.8 2.6-.75 2.6q-4.7 0-9.9 1.25l-4.25 1.2" fill="#9e2f00" transform="translate(16.45 11.15)"/><path d="m12.95 6.8-1.75-.05Q3.85 5.25-.3 5.25L-11 6.35l-2.3.25 3.3-1.15q4.4-1.2 9.6-1.2 8.4 0 13.35 2.55" fill="#260000" transform="translate(16.45 11.15)"/><path d="m6.9-.6-.4 2.7-1.25-.25.45-2.6 1.2.15M-7.5-.75l1.65-.45.45 2.85-1.75.4-.35-2.8" fill="#ffc5b5" transform="translate(16.45 11.15)"/><path d="m14.05 6.5.2.3-.35.7Q9.45 4.25-.4 4.25q-6.1 0-11.2 1.7l-3.9 1.7-.05-1.05 4.8-1.5Q-5 3.6-.45 3.6q7.3 0 14.5 2.9" fill="#d6bf85" transform="translate(16.45 11.15)"/><path d="m13.7 5.1.55 1.7q-.05.35-10.8-2.7l-.6-.45L5.5 3.1l8.2 2" fill="#d6bf85" transform="translate(16.45 11.15)"/></g></defs></svg>

<?xml version="1.0" encoding="UTF-8" standalone="no"?>
<svg xmlns:xlink="http://www.w3.org/1999/xlink" height="92.9px" width="100.7px" xmlns="http://www.w3.org/2000/svg">
  <g transform="matrix(1.0, 0.0, 0.0, 1.0, 38.65, 49.75)">
    <use height="21.75" transform="matrix(1.0, 0.0, 0.0, 1.0, -16.45, -11.15)" width="31.8" xlink:href="#shape0"/>
  </g>
  <defs>
    <g id="shape0" transform="matrix(1.0, 0.0, 0.0, 1.0, 16.45, 11.15)">
      <path d="M10.2 2.55 L12.35 3.55 Q14.6 4.65 14.95 5.3 15.8 6.95 14.75 8.65 L12.35 10.6 8.7 5.1 Q8.55 4.85 5.7 3.65 L10.2 2.55" fill="#0a0200" fill-rule="evenodd" stroke="none"/>
      <path d="M-11.3 2.55 L-6.8 3.65 -9.95 5.5 -13.3 10.5 Q-15.45 9.25 -15.85 8.65 -16.9 6.95 -16.05 5.3 -15.65 4.65 -13.45 3.55 L-11.3 2.55" fill="#0a0200" fill-rule="evenodd" stroke="none"/>
      <path d="M11.5 -7.8 Q11.9 -7.25 11.35 -5.6 L10.5 -3.3 Q10.15 -2.3 9.75 -0.2 L10.3 0.45 Q10.7 0.85 11.0 3.25 L3.0 2.7 0.0 -1.8 -0.15 -2.55 -0.3 -1.8 -3.3 2.7 -11.3 3.25 -10.65 0.45 -10.15 -0.35 -10.8 -3.3 Q-12.2 -7.25 -11.8 -7.8 -11.2 -8.65 -8.2 -9.85 -4.8 -11.15 -2.15 -11.15 L1.8 -11.15 Q4.5 -11.15 7.85 -9.85 10.85 -8.65 11.5 -7.8" fill="#0a0200" fill-rule="evenodd" stroke="none"/>
      <path d="M11.0 7.85 Q7.75 9.7 2.2 10.2 -5.35 10.9 -11.4 7.85 -10.5 5.3 -9.65 4.6 -7.25 2.6 -0.65 2.6 6.05 2.6 8.55 4.35 9.15 4.8 11.0 7.85" fill="#4f5e7d" fill-opacity="0.16078432" fill-rule="evenodd" stroke="none"/>
      <path d="M10.35 5.0 L10.7 8.0 Q8.05 6.75 -0.65 6.75 -6.05 6.75 -9.15 7.5 L-11.15 8.2 -10.2 5.0 -1.2 3.45 10.35 5.0" fill="#8a8a8a" fill-opacity="0.4117647" fill-rule="evenodd" stroke="none"/>
      <path d="M8.5 4.7 Q4.55 3.75 -0.5 3.8 L-8.6 4.6 -9.55 5.75 Q-11.35 8.05 -12.15 9.85 -13.75 9.05 -15.4 7.65 L-15.55 7.2 Q-12.55 5.4 -8.6 4.6 -7.5 3.35 -7.05 3.5 L7.7 3.95 8.5 4.7 Q11.65 5.45 14.1 6.85 L13.9 7.5 Q13.25 8.75 11.55 9.7 11.2 8.55 9.8 6.45 L8.5 4.7" fill="#873c09" fill-rule="evenodd" stroke="none"/>
      <path d="M-0.5 -10.15 Q7.3 -10.25 10.25 -7.35 9.7 -5.1 9.3 -2.35 8.55 3.1 9.6 5.5 1.3 1.7 -10.15 5.55 -8.6 -0.6 -10.9 -6.95 -8.35 -10.05 -0.5 -10.15" fill="#ffffbf" fill-rule="evenodd" stroke="none"/>
      <path d="M2.2 -8.95 Q7.7 -8.35 8.75 -6.7 7.25 1.9 7.7 3.25 L1.75 2.35 Q1.6 -0.25 2.2 -8.95" fill="#fdc259" fill-rule="evenodd" stroke="none"/>
      <path d="M-5.4 -8.4 L-4.05 2.25 -8.0 2.8 Q-7.8 -2.1 -9.2 -6.75 -7.85 -8.3 -5.4 -8.4" fill="#fdc259" fill-rule="evenodd" stroke="none"/>
      <path d="M-1.05 -1.7 Q5.25 -1.7 7.95 -0.2 9.3 0.5 9.35 1.25 L-1.1 -0.65 -9.95 1.35 -8.65 -0.15 Q-6.3 -1.7 -1.05 -1.7" fill="#e03000" fill-rule="evenodd" stroke="none"/>
      <path d="M9.7 5.5 Q6.55 3.35 -0.7 3.35 -7.95 3.3 -10.8 5.5 -10.35 4.1 -10.0 1.5 -8.95 -1.05 -0.85 -1.15 7.3 -1.25 9.45 1.3 L9.7 5.5" fill="#ffab94" fill-rule="evenodd" stroke="none"/>
      <path d="M0.95 -0.05 L1.05 -0.75 Q4.35 -0.95 8.45 0.8 L8.45 2.4 5.3 1.9 0.0 1.15 2.7 0.9 0.85 0.6 3.4 0.5 Q2.25 0.05 0.95 -0.05" fill="#ff752e" fill-rule="evenodd" stroke="none"/>
      <path d="M-8.95 1.05 L-8.8 0.75 Q-6.75 -0.85 -3.65 -0.4 L-6.05 0.65 -3.95 0.55 -4.15 1.35 -6.6 1.8 Q-8.25 1.9 -9.15 2.35 L-8.95 1.05" fill="#ff752e" fill-rule="evenodd" stroke="none"/>
      <path d="M-8.45 -7.45 L-6.95 -8.15 -5.4 1.65 -7.15 2.05 -8.45 -7.45" fill="#ffffff" fill-rule="evenodd" stroke="none"/>
      <path d="M7.95 -7.2 L6.5 2.1 5.25 1.85 6.75 -7.8 7.95 -7.2" fill="#ffffff" fill-rule="evenodd" stroke="none"/>
      <path d="M1.6 2.15 Q9.9 2.7 13.6 5.1 14.35 5.85 14.1 7.35 8.6 4.25 -0.5 4.25 -9.85 4.25 -15.5 7.65 -15.75 6.35 -14.9 5.1 -8.25 1.5 1.6 2.15" fill="#ffffed" fill-rule="evenodd" stroke="none"/>
      <path d="M-14.9 5.05 L-11.45 3.55 Q-6.85 2.05 -0.8 2.05 8.8 2.05 13.7 5.1 6.8 2.6 -0.75 2.6 -5.45 2.6 -10.65 3.85 L-14.9 5.05" fill="#9e2f00" fill-rule="evenodd" stroke="none"/>
      <path d="M12.95 6.8 L11.2 6.75 Q3.85 5.25 -0.3 5.25 L-11.0 6.35 -13.3 6.6 -10.0 5.45 Q-5.6 4.25 -0.4 4.25 8.0 4.25 12.95 6.8" fill="#260000" fill-rule="evenodd" stroke="none"/>
      <path d="M6.9 -0.6 L6.5 2.1 5.25 1.85 5.7 -0.75 6.9 -0.6" fill="#ffc5b5" fill-rule="evenodd" stroke="none"/>
      <path d="M-7.5 -0.75 L-5.85 -1.2 -5.4 1.65 -7.15 2.05 -7.5 -0.75" fill="#ffc5b5" fill-rule="evenodd" stroke="none"/>
      <path d="M14.05 6.5 L14.25 6.8 13.9 7.5 Q9.45 4.25 -0.4 4.25 -6.5 4.25 -11.6 5.95 L-15.5 7.65 -15.55 6.6 -10.75 5.1 Q-5.0 3.6 -0.45 3.6 6.85 3.6 14.05 6.5" fill="#d6bf85" fill-rule="evenodd" stroke="none"/>
      <path d="M13.7 5.1 L14.25 6.8 Q14.2 7.15 3.45 4.1 L2.85 3.65 5.5 3.1 13.7 5.1" fill="#d6bf85" fill-rule="evenodd" stroke="none"/>
    </g>
  </defs>
</svg>
